!!!COM:	Bach, Johann Sebastian
!!!OMV:	O Gott, du frommer Gott
!!!OTL:	O Gott, du frommer Gott
**kern	**fb	**kern	**kern	**kern	**kern	**kern
*part6	*part6	*part5	*part4	*part3	*part2	*part1
*staff6	*	*staff5	*staff4	*staff3	*staff2	*staff1
*I"Continuo	*	*I"Voice	*I"Voice	*I"Voice	*I"Voice	*I"Violin
*I'Cont.	*	*I'V	*I'V	*I'V	*I'V	*I'Vln.
*clefF4	*	*clefF4	*clefGv2	*clefG2	*clefG2	*clefG2
*Trd0c0	*	*	*	*	*	*
*k[b-e-]	*	*k[b-e-]	*k[b-e-]	*k[b-e-]	*k[b-e-]	*k[b-e-]
*M4/4	*	*M4/4	*M4/4	*M4/4	*M4/4	*M4/4
4F#X	6	4F#X	4d	4a	8ddL	[4aa
.	.	.	.	.	8ccJ	.
=2	=2	=2	=2	=2	=2	=2
4G	9	4G	4d	4b-	4b-	8aa]
.	8	.	.	.	.	4gg
4D	7 4	4D	4d	4a	4cc	.
.	#	.	.	.	.	8ff#X
4GG	.	4GG	8dL	4g	8b-L	8ggL
.	.	.	8cJ	.	8aJ	8aaJ
4G	.	4G	8B-L	8ddL	8gL	8bb-L
.	.	.	8AJ	8ccJ	8aJ	8cccJ
=3	=3	=3	=3	=3	=3	=3
4F	6 4 2	4F	4G	8b-L	8b-L	8dddL
.	.	.	.	8aJ	8ccJ	8ddJ
4E-	6	4E-	4G	4g	8.ccL	8ggL
.	.	.	.	.	.	8aaJ
.	.	.	.	.	32b-LL	.
.	.	.	.	.	32ccJJJ	.
4D;	#	4D;	4d;	4a;	4dd;	4ff#X;
4G	.	4G	4B-	4b-	8ddL	4ddd
.	.	.	.	.	8ee-J	.
=4	=4	=4	=4	=4	=4	=4
4A	6	4A	4c	8aL	8ffL	4ccc
.	5	.	.	8gJ	8ee-J	.
4B-	.	4B-	4d	4f	8ddL	8bb-L
.	.	.	.	.	8ccJ	8aaJ
4E-	.	4E-	8e-L	4.g	4b-	8ggL
.	.	.	8dJ	.	.	8gJ
4D	7 5	4D	8e-L	.	8ccL	8aL
.	8 nr6	.	8fJ	8f	8ddJ	8bnJ
=	=	=	=	=	=	=
2C	.	2C	8gL	8e-L	2ee-	8ccL
.	.	.	8fJ	8f	.	8ddJ
.	.	.	8e-L	8g	.	8ee-L
.	.	.	16dL	8aJ	.	8ffJ
.	.	.	16cJJ	.	.	.
4GG;	.	4GG;	4d;	4b-;	4dd;	4gg;
=5:|!	=5:|!	=5:|!	=5:|!	=5:|!	=5:|!	=5:|!
4D	6	4D	8dL	8b-L	4ff	[4ff
.	.	.	8cJ	8aJ	.	.
=6	=6	=6	=6	=6	=6	=6
!!pagebreak:original
4E-	9	4E-	4B-	4g	4gg	8ffL]
.	8	.	.	.	.	8ee-J
4F	4 6 8	4F	4f	4a	8ffL	8ddL
.	3 5 7	.	.	.	8ee-J	8ccJ
8BB-L	.	8BB-L	8fL	8b-L	8ddL	2b-
8C	.	8C	8e-J	8g	8ccJ	.
8D	6	8D	8dL	8f	8b-L	.
8E-J	6 5	8E-J	8cJ	8e-J	8ccJ	.
=7	=7	=7	=7	=7	=7	=7
4F	6 4	4F	4B-	8dL	8ddL	8b-L
.	.	.	.	16cL	16ee-L	8ccJ
.	.	.	.	16B-JJ	16ffJJ	.
4FF	5 3	4FF	4c	4f	4cc	4a
4BB-;	.	4BB-;	4d;	4f;	4b-;	4b-;
8B-L	.	8B-L	8dL	4f	4dd	4ff
8AJ	.	8AJ	8cJ	.	.	.
=8	=8	=8	=8	=8	=8	=8
8GL	.	8GL	4B-	4g	4dd	8bb-L
8FJ	.	8FJ	.	.	.	8aaJ
4En	7 5	4En	4B-	8gL	4dd	8ggL
.	.	.	.	8fJ	.	[8bb-J
4F#X	7 5 4	4F#X	4A	4e-	4cc	8bb-]
.	3	.	.	.	.	4aa
4G	9	4G	4B-	4d	4b-	.
.	8	.	.	.	.	[8gg
=9	=9	=9	=9	=9	=9	=9
4D	4	4D	4c	4d	4a	8ggL]
.	#	.	.	.	.	8ff#XJ
4GG;	.	4GG;	4B-;	4d;	4g;	4gg;
4En	6 5	4En	4G	8r	4b-	[2ccc
.	.	.	.	4g	.	.
4F	.	4F	8AL	.	4a	.
.	.	.	8B-J	[8f	.	.
=10	=10	=10	=10	=10	=10	=10
!!linebreak:original
2C	4	2C	2c	8fL]	2g	8cccL]
.	n	.	.	16enL	.	8ggJ
.	.	.	.	16dJJ	.	.
.	.	.	.	4e	.	8cccL
.	.	.	.	.	.	8bb-J
4FF;	.	4FF;	4c;	4f;	4f;	4aa;
8FL	.	8FL	4c	4f	4f	8aaL
8E-J	.	8E-XJ	.	.	.	8ggJ
=11	=11	=11	=11	=11	=11	=11
8DL	6	8DL	4d	4f	4b-	8ffL
8CJ	.	8CJ	.	.	.	8ee-J
4BB-	.	4BB-	4d	8b-L	4b-	8ddL
.	.	.	.	8aJ	.	[8bb-J
4E-	6 5	4E-	4c	4g	4cc	8bb-L]
.	.	.	.	.	.	16aaL
.	.	.	.	.	.	16ggJJ
4F	.	4F	8fL	4f	4cc	8aaL
.	.	.	8e-J	.	.	16ffL
.	.	.	.	.	.	16ggJJ
=12	=12	=12	=12	=12	=12	=12
4BBn	-r7 5	4BBn	4d	4f	4dd	4aa-X
4C	5	4C	4c	4e-	4ee-	8ggL
.	6	.	.	.	.	8aanJ
8DL	8 6	8DL	4B-	8fL	4.dd	8bb-L
8EnJ	7 5 3	8EnJ	.	8gJ	.	8cccJ
4F#X	6 5	4F#X	4A	4a	.	[4ddd
.	.	.	.	.	8cc	.
=13	=13	=13	=13	=13	=13	=13
8GL	.	8GL	8B-L	4.d	8b-L	8dddL]
8A	.	8A	8cJ	.	8aJ	8cccJ
8B-	6	8B-	8dL	.	8gL	8bb-L
8cJ	6 5	8cJ	8e-J	8c	8aJ	[8aaJ
4d	6 5	4d	4.d	8B-L	4b-	8aa]
.	4	.	.	8cJ	.	4gg
4D	5 4	4D	.	4d	4a	.
.	#	.	8c	.	.	8ff#X
=14	=14	=14	=14	=14	=14	=14
!!pagebreak:original
2.GG;	.	2.GG;	2.Bn;	2.d;	2.g;	2.gg;
=||	=||	=||	=||	=||	=||	=||
*-	*-	*-	*-	*-	*-	*-
!!!system-decoration: s1,s2,s3,s4,s5,s6
